resources/svg/reddit.svg

<svg xmlns="http://www.w3.org/2000/svg" viewBox="0 0 15 15" fill="currentColor"><path fill-rule="evenodd" clip-rule="evenodd" d="M7.62127 1.01493C7.4719 0.977591 7.31365 1.01115 7.19229 1.1059C7.07094 1.20066 7 1.34604 7 1.5V5.01517C5.68843 5.09472 4.45597 5.48198 3.4547 6.05888C3.06685 5.71786 2.5439 5.54382 2.02178 5.54382C0.905006 5.54382 0 6.44883 0 7.5656C0 8.31344 0.406066 8.96026 1.00678 9.30796C1.00228 9.37166 1 9.43568 1 9.5C1 10.7427 1.8524 11.8756 3.02128 12.6698C4.20612 13.4749 5.80427 14 7.49999 14C9.1957 14 10.7939 13.4749 11.9787 12.6698C13.1476 11.8756 14 10.7427 14 9.5C14 9.4357 13.9977 9.3717 13.9932 9.30802C14.594 8.96033 15.0001 8.31348 15.0001 7.5656C15.0001 6.44883 14.0951 5.54382 12.9783 5.54382C12.4562 5.54382 11.9332 5.71787 11.5454 6.05892C10.5441 5.482 9.31159 5.09472 8 5.01518V2.14039L11.0551 2.90416C11.2315 3.53627 11.8116 4 12.5 4C13.3284 4 14 3.32843 14 2.5C14 1.67157 13.3284 1 12.5 1C11.8881 1 11.3618 1.36638 11.1285 1.89173L7.62127 1.01493ZM12.5 3C12.2264 3 12.0041 2.7802 12.0001 2.50753L12 2.5L12.0001 2.4921C12.0043 2.2196 12.2265 2 12.5 2C12.7761 2 13 2.22386 13 2.5C13 2.77614 12.7761 3 12.5 3ZM5 9H6V8H5V9ZM7.50004 11C6.51331 11 5.88337 10.8296 5.19417 10.5392L4.80591 11.4608C5.60196 11.7962 6.36358 12 7.50004 12C8.63649 12 9.39811 11.7962 10.1942 11.4608L9.80591 10.5392C9.11671 10.8296 8.48677 11 7.50004 11ZM10 9H9V8H10V9Z" fill="black"/></svg>

<svg xmlns="http://www.w3.org/2000/svg" viewBox="0 0 15 15" fill="currentColor"><path fill-rule="evenodd" clip-rule="evenodd" d="M7.621 1.015A.5.5 0 007 1.5v3.515A8.16 8.16 0 003.455 6.06c-.388-.341-.911-.515-1.433-.515A2.022 2.022 0 000 7.566c0 .747.406 1.394 1.007 1.742A2.725 2.725 0 001 9.5c0 1.243.852 2.376 2.021 3.17C4.206 13.475 5.804 14 7.5 14c1.696 0 3.294-.525 4.479-1.33C13.148 11.876 14 10.743 14 9.5c0-.064-.002-.128-.007-.192A2.008 2.008 0 0015 7.566a2.022 2.022 0 00-2.022-2.022c-.522 0-1.045.174-1.433.515A8.16 8.16 0 008 5.015V2.14l3.055.764a1.5 1.5 0 10.074-1.012L7.62 1.015zM12.5 3a.5.5 0 01-.5-.492v-.016a.5.5 0 11.5.508zM5 9h1V8H5v1zm2.5 2c-.987 0-1.617-.17-2.306-.46l-.388.92c.796.336 1.558.54 2.694.54s1.898-.204 2.694-.54l-.388-.92c-.69.29-1.32.46-2.306.46zM10 9H9V8h1v1z" fill="currentColor"/></svg>
